;FLAVOR:Marlin
;TIME:8818
;Filament used: 19.2882m
;Layer height: 0.26
;MINX:40.561
;MINY:90.4
;MINZ:0.2
;MAXX:211.08
;MAXY:162.636
;MAXZ:23.6
;TARGET_MACHINE.NAME:Geeetech Thunder
;Generated with Cura_SteamEngine 5.7.2
M104 S221
M105
M109 S221
M82 ;absolute extrusion mode
;Official viki homepage for Thunder:https://www.geeetech.com/wiki/index.php/Geeetech_Thunder_3D_printer  

M104 S221 ; Set Hotend Temperature
M190 S62 ; Wait for Bed Temperature
M109 S221 ; Wait for Hotend Temperature
G92 E0 ; Reset Extruder
G28 ; Home all axes
M107 P0 ;Off Main Fan
M107 P1 ;Off Aux Fan
M2012 P8 S1 F100 ; ON Light
;M106 P0 S383 ; ON MainFan 150% if need
;M106 P1 S255 ; ON Aux Fan 100% if need
G1 Z5.0 F3000 ;Move Z Axis up little to prevent scratching of Heat Bed
G1 X0.1 Y20 Z0.8 F5000 ; Move to start position
G1 X0.1 Y200.0 Z1.2 F1500 E30 ; Draw the first line
G92 E0 ; Reset Extruder
G1 X0.4 Y200.0 Z1.2 F3000 ; Move to side a little
G1 X0.4 Y20 Z1.2 F1500 E25 ; Draw the second line
G92 E0 ; Reset Extruder
G1 Z2.0 F3000 ; Move Z Axis up little to prevent scratching of Heat Bed
G1 X5 Y20 Z0.4 F3000.0 ; Scrape off nozzle residue
G92 E0
G92 E0
G1 F2100 E-6.5
;LAYER_COUNT:91
;LAYER:0
M107
G0 F3000 X48.455 Y92.075 Z0.2
;TYPE:SKIRT
G1 F2100 E0
G1 F1800 X49.004 Y91.802 E0.01937
G1 X49.745 Y91.479 E0.04491
G1 X50.314 Y91.264 E0.06413
G1 X51.115 Y91.005 E0.09073
G1 X51.697 Y90.848 E0.10978
G1 X52.487 Y90.675 E0.13533
G1 X53.091 Y90.573 E0.15469
G1 X54.012 Y90.465 E0.18399
G1 X54.617 Y90.424 E0.20315
G1 X55.966 Y90.4 E0.24578
G1 X204.257 Y90.683 E4.93136
G1 X204.968 Y90.694 E4.95383
G1 X205.67 Y90.745 E4.97607
G1 X206.362 Y90.875 E4.99831
G1 X207.035 Y91.082 E5.02056
G1 X207.679 Y91.365 E5.04279
G1 X208.288 Y91.719 E5.06505
G1 X208.852 Y92.139 E5.08727
G1 X209.366 Y92.621 E5.10953
G1 X209.821 Y93.158 E5.13177
G1 X210.212 Y93.743 E5.154
G1 X210.535 Y94.369 E5.17626
G1 X210.785 Y95.027 E5.1985
G1 X210.958 Y95.71 E5.22076
G1 X211.08 Y96.806 E5.25561
G1 X211.017 Y130.445 E6.31851
G1 X211.004 Y131.045 E6.33747
G1 X210.948 Y131.747 E6.35972
G1 X210.814 Y132.438 E6.38196
G1 X210.602 Y133.11 E6.40422
G1 X210.316 Y133.753 E6.42646
G1 X209.958 Y134.359 E6.4487
G1 X209.534 Y134.921 E6.47094
G1 X209.049 Y135.431 E6.49318
G1 X208.509 Y135.883 E6.51543
G1 X207.921 Y136.271 E6.53769
G1 X207.294 Y136.59 E6.55992
G1 X206.634 Y136.835 E6.58217
G1 X205.849 Y137.029 E6.60772
G1 X202.72 Y137.418 E6.70734
G1 X200.125 Y137.816 E6.7903
G1 X197.489 Y138.298 E6.87497
G1 X194.942 Y138.838 E6.95724
G1 X192.346 Y139.466 E7.04163
G1 X189.779 Y140.164 E7.12568
G1 X187.235 Y140.933 E7.20966
G1 X184.685 Y141.785 E7.29461
G1 X182.223 Y142.685 E7.37744
G1 X179.768 Y143.662 E7.46092
G1 X177.324 Y144.715 E7.54501
G1 X174.926 Y145.831 E7.62858
G1 X172.549 Y147.019 E7.71255
G1 X170.202 Y148.276 E7.79667
G1 X167.904 Y149.592 E7.88035
G1 X165.617 Y150.99 E7.96504
G1 X163.438 Y152.407 E8.04717
G1 X161.237 Y153.93 E8.13174
G1 X159.081 Y155.511 E8.21622
G1 X157.017 Y157.12 E8.29891
G1 X154.925 Y158.837 E8.38442
G1 X154.243 Y159.368 E8.41173
G1 X153.617 Y159.808 E8.43591
G1 X152.894 Y160.268 E8.46299
G1 X152.217 Y160.652 E8.48758
G1 X151.48 Y161.024 E8.51366
G1 X150.774 Y161.339 E8.53809
G1 X149.994 Y161.644 E8.56455
G1 X149.232 Y161.898 E8.58993
G1 X148.472 Y162.112 E8.61488
G1 X147.69 Y162.3 E8.64029
G1 X146.506 Y162.499 E8.67823
G1 X145.926 Y162.558 E8.69665
G1 X145.005 Y162.622 E8.72582
G1 X144.451 Y162.636 E8.74333
G1 X143.648 Y162.62 E8.76871
G1 X143.138 Y162.595 E8.78484
G1 X142.314 Y162.516 E8.811
G1 X141.454 Y162.396 E8.83844
G1 X140.454 Y162.178 E8.87077
G1 X139.945 Y162.052 E8.88734
G1 X139.225 Y161.839 E8.91107
G1 X138.301 Y161.519 E8.94196
G1 X137.427 Y161.146 E8.97199
G1 X136.705 Y160.798 E8.99732
G1 X135.996 Y160.412 E9.02282
G1 X135.29 Y159.982 E9.04894
G1 X134.613 Y159.523 E9.07479
G1 X133.975 Y159.044 E9.09999
G1 X132.631 Y157.949 E9.15477
G1 X130.559 Y156.308 E9.23829
G1 X128.428 Y154.719 E9.32228
G1 X126.241 Y153.181 E9.40676
G1 X124.066 Y151.741 E9.48918
G1 X121.79 Y150.325 E9.57388
G1 X119.488 Y148.983 E9.65807
G1 X117.176 Y147.72 E9.74131
G1 X114.796 Y146.507 E9.82572
G1 X112.403 Y145.371 E9.90942
G1 X109.999 Y144.312 E9.99242
G1 X107.483 Y143.289 E10.07824
G1 X105.024 Y142.368 E10.16121
G1 X102.53 Y141.514 E10.2445
G1 X100.018 Y140.731 E10.32764
G1 X97.439 Y140.008 E10.41227
G1 X94.869 Y139.365 E10.49598
G1 X92.236 Y138.785 E10.58117
G1 X89.668 Y138.295 E10.66377
G1 X87.065 Y137.874 E10.74709
G1 X84.437 Y137.525 E10.83086
G1 X81.762 Y137.247 E10.91583
G1 X79.141 Y137.048 E10.99889
G1 X76.497 Y136.923 E11.08252
G1 X73.52 Y136.871 E11.1766
G1 X55.758 Y136.836 E11.73783
G1 X54.705 Y136.815 E11.77111
G1 X53.932 Y136.771 E11.79557
G1 X52.475 Y136.583 E11.84199
G1 X51.585 Y136.379 E11.87084
G1 X50.761 Y136.135 E11.898
G1 X50.258 Y135.962 E11.9148
G1 X49.462 Y135.65 E11.94182
G1 X48.904 Y135.399 E11.96115
G1 X48.176 Y135.027 E11.98698
G1 X47.65 Y134.725 E12.00615
G1 X46.956 Y134.28 E12.0322
G1 X46.464 Y133.93 E12.05128
G1 X45.802 Y133.408 E12.07791
G1 X45.314 Y132.979 E12.09844
G1 X44.606 Y132.289 E12.12968
G1 X44.229 Y131.888 E12.14707
G1 X43.758 Y131.328 E12.17019
G1 X43.395 Y130.836 E12.18951
G1 X42.848 Y130.039 E12.22006
G1 X42.578 Y129.61 E12.23607
G1 X42.311 Y129.129 E12.25345
G1 X41.949 Y128.393 E12.27937
G1 X41.568 Y127.509 E12.30979
G1 X41.372 Y126.991 E12.32729
G1 X41.202 Y126.456 E12.34502
G1 X41.007 Y125.726 E12.3689
G1 X40.838 Y124.955 E12.39384
G1 X40.737 Y124.353 E12.41312
G1 X40.626 Y123.41 E12.44313
G1 X40.584 Y122.8 E12.46245
G1 X40.561 Y121.489 E12.50388
G1 X40.592 Y105.431 E13.01126
G1 X40.616 Y104.338 E13.04581
G1 X40.682 Y103.446 E13.07407
G1 X40.756 Y102.9 E13.09148
G1 X40.92 Y102.007 E13.12017
G1 X41.071 Y101.349 E13.1415
G1 X41.252 Y100.71 E13.16248
G1 X41.444 Y100.114 E13.18227
G1 X41.703 Y99.445 E13.20494
G1 X41.974 Y98.85 E13.22559
G1 X42.324 Y98.129 E13.25092
G1 X42.714 Y97.452 E13.27561
G1 X43.047 Y96.917 E13.29552
G1 X43.489 Y96.296 E13.3196
G1 X44.045 Y95.608 E13.34755
G1 X44.398 Y95.207 E13.36443
G1 X44.976 Y94.606 E13.39078
G1 X45.423 Y94.185 E13.41018
G1 X46.066 Y93.637 E13.43688
G1 X46.541 Y93.271 E13.45582
G1 X47.199 Y92.812 E13.48117
G1 X47.72 Y92.486 E13.50059
G1 X48.455 Y92.075 E13.5272
G1 F2100 E7.0272
;MESH:Obi-Wan_braco_arma.stl
G0 F3000 X51.284 Y97.383
G0 X51.786 Y98.322
G0 X55.554 Y105.908
G0 X55.171 Y106.495
G0 X54.992 Y107.483
G0 X55.122 Y108.125
G0 X55.595 Y108.899
G0 X57.605 Y110.038
G0 X57.532 Y109.747
;TYPE:WALL-INNER
G1 F2100 E13.5272
G1 F1500 X56.952 Y109.747 E13.54553
G1 X56.431 Y109.627 E13.56242
G1 X56.015 Y109.437 E13.57687
G1 X55.478 Y109.007 E13.59861
G1 X55.215 Y108.663 E13.61229
G1 X54.969 Y108.181 E13.62939
G1 X54.825 Y107.491 E13.65166
G1 X54.891 Y106.868 E13.67145
G1 X55.016 Y106.454 E13.68512
G1 X55.288 Y105.967 E13.70274
G1 X55.655 Y105.559 E13.72008
G1 X56.245 Y105.178 E13.74228
G1 X56.897 Y105 E13.76363
G1 X57.444 Y104.992 E13.78092
G1 X57.929 Y105.086 E13.79653
G1 X58.436 Y105.3 E13.81391
G1 X58.991 Y105.743 E13.83635
G1 X59.434 Y106.447 E13.86263
G1 X59.614 Y107.142 E13.88532
G1 X59.552 Y107.947 E13.91083
G1 X59.295 Y108.569 E13.93209
G1 X59.028 Y108.942 E13.94659
G1 X58.71 Y109.244 E13.96045
G1 X58.125 Y109.589 E13.98191
G1 X57.532 Y109.747 E14.0013
G0 F3000 X57.605 Y110.038
G0 X59.904 Y115.777
G0 X60.379 Y116.472
G0 X61.375 Y117.36
G0 X61.969 Y117.682
G0 X63.66 Y118.126
G0 X63.667 Y117.858
G1 F1500 X62.634 Y117.667 E14.03449
G1 X62.114 Y117.482 E14.05193
G1 X61.509 Y117.16 E14.07358
G1 X60.874 Y116.655 E14.09922
G1 X60.595 Y116.352 E14.11223
G1 X60.133 Y115.688 E14.13779
G1 X59.921 Y115.262 E14.15283
G1 X59.685 Y114.505 E14.17788
G1 X59.596 Y113.847 E14.19886
G1 X59.636 Y113.024 E14.2249
G1 X59.779 Y112.387 E14.24553
G1 X60.099 Y111.621 E14.27176
G1 X60.582 Y110.923 E14.29858
G1 X60.998 Y110.493 E14.31748
G1 X61.68 Y109.997 E14.34413
G1 X62.456 Y109.646 E14.37104
G1 X63.26 Y109.466 E14.39707
G1 X63.74 Y109.432 E14.41228
G1 X64.312 Y109.463 E14.43038
G1 X64.746 Y109.543 E14.44432
G1 X65.515 Y109.798 E14.46992
G1 X66.081 Y110.107 E14.49029
G1 X66.737 Y110.635 E14.5169
G1 X67.242 Y111.236 E14.54171
G1 X67.629 Y111.891 E14.56574
G1 X67.854 Y112.559 E14.58802
G1 X67.951 Y113.047 E14.60374
G1 X67.991 Y113.682 E14.62384
G1 X67.947 Y114.264 E14.64228
G1 X67.753 Y115.029 E14.66722
G1 X67.557 Y115.491 E14.68308
G1 X67.246 Y116.024 E14.70258
G1 X67.007 Y116.336 E14.71499
G1 X66.566 Y116.789 E14.73497
G1 X66.09 Y117.15 E14.75385
G1 X65.655 Y117.395 E14.76962
G1 X64.948 Y117.67 E14.79359
G1 X64.52 Y117.771 E14.80749
G1 X63.667 Y117.858 E14.83458
G0 F3000 X63.66 Y118.126
G0 X58.673 Y121.996
G0 X58.056 Y122.291
G0 X57.17 Y122.513
G0 X57.198 Y122.212
G1 F1500 X56.731 Y122.159 E14.84943
G1 X56.271 Y122.019 E14.86462
G1 X55.793 Y121.735 E14.88219
G1 X55.393 Y121.346 E14.89982
G1 X55.042 Y120.729 E14.92225
G1 X54.899 Y120.218 E14.93902
G1 X54.904 Y119.635 E14.95744
G1 X55.021 Y119.09 E14.97505
G1 X55.398 Y118.428 E14.99912
G1 X55.833 Y118.017 E15.01803
G1 X56.232 Y117.788 E15.03257
G1 X56.806 Y117.606 E15.05159
G1 X57.415 Y117.592 E15.07084
G1 X57.913 Y117.691 E15.08688
G1 X58.439 Y117.945 E15.10534
G1 X58.988 Y118.404 E15.12795
G1 X59.378 Y119.088 E15.15283
G1 X59.513 Y119.682 E15.17208
G1 X59.456 Y120.462 E15.19679
G1 X59.177 Y121.101 E15.21882
G1 X58.86 Y121.509 E15.23515
G1 X58.539 Y121.787 E15.24856
G1 X57.84 Y122.131 E15.27318
G1 X57.198 Y122.212 E15.29363
G0 F3000 X57.17 Y122.513
G0 X70.489 Y122.574
G0 X70.415 Y122.28
G1 F1500 X69.826 Y122.263 E15.31224
G1 X69.291 Y122.115 E15.32978
G1 X68.963 Y121.941 E15.34152
G1 X68.529 Y121.591 E15.35913
G1 X68.263 Y121.266 E15.3724
G1 X68.005 Y120.761 E15.39032
G1 X67.861 Y119.998 E15.41486
G1 X67.941 Y119.406 E15.43373
G1 X68.205 Y118.769 E15.45552
G1 X68.621 Y118.27 E15.47605
G1 X69.083 Y117.943 E15.49393
G1 X69.754 Y117.697 E15.51651
G1 X70.394 Y117.667 E15.53676
G1 X71.141 Y117.86 E15.56113
G1 X71.658 Y118.189 E15.5805
G1 X72.046 Y118.598 E15.59831
G1 X72.283 Y118.989 E15.61276
G1 X72.474 Y119.609 E15.63326
G1 X72.498 Y120.124 E15.64955
G1 X72.372 Y120.726 E15.66898
G1 X72.166 Y121.175 E15.68459
G1 X71.924 Y121.504 E15.69749
G1 X71.588 Y121.821 E15.71209
G1 X71.125 Y122.101 E15.72919
G1 X70.415 Y122.28 E15.75232
G0 F3000 X70.489 Y122.574
G0 X71.212 Y122.328
G0 X72.064 Y121.718
G0 X72.635 Y120.734
G0 X72.743 Y120.116
G0 X70.38 Y110.046
G0 X70.388 Y109.743
G1 F1500 X69.9 Y109.73 E15.76775
G1 X69.25 Y109.55 E15.78906
G1 X68.801 Y109.28 E15.80561
G1 X68.326 Y108.799 E15.82697
G1 X68.017 Y108.243 E15.84707
G1 X67.882 Y107.747 E15.86331
G1 X67.877 Y107.086 E15.8842
G1 X68.004 Y106.572 E15.90093
G1 X68.218 Y106.144 E15.91605
G1 X68.638 Y105.638 E15.93683
G1 X68.984 Y105.388 E15.95032
G1 X69.405 Y105.187 E15.96506
G1 X69.801 Y105.076 E15.97805
G1 X70.212 Y105.041 E15.99108
G1 X70.693 Y105.094 E16.00637
G1 X71.233 Y105.276 E16.02438
G1 X71.636 Y105.523 E16.03931
G1 X71.944 Y105.804 E16.05249
G1 X72.328 Y106.365 E16.07397
G1 X72.495 Y106.831 E16.08961
G1 X72.565 Y107.486 E16.11042
G1 X72.483 Y108.01 E16.12718
G1 X72.172 Y108.699 E16.15107
G1 X71.826 Y109.105 E16.16792
G1 X71.381 Y109.439 E16.1855
G1 X70.831 Y109.663 E16.20427
G1 X70.388 Y109.743 E16.21849
G1 F2100 E9.71849
G0 F3000 X70.38 Y110.046
G0 X185.255 Y103.58
G0 X185.182 Y103.286
G1 F2100 E16.21849
G1 F1500 X184.665 Y103.314 E16.23485
G1 X183.988 Y103.171 E16.25672
G1 X183.558 Y102.966 E16.27177
G1 X183.132 Y102.649 E16.28855
G1 X182.682 Y102.079 E16.31149
G1 X182.431 Y101.425 E16.33363
G1 X182.369 Y100.862 E16.35152
G1 X182.414 Y100.392 E16.36644
G1 X182.517 Y100.024 E16.37852
G1 X182.729 Y99.584 E16.39395
G1 X183.028 Y99.191 E16.40955
G1 X183.412 Y98.861 E16.42555
G1 F1452.8 X183.963 Y98.56 E16.44603
G1 F1363.6 X184.657 Y98.391 E16.47086
G1 F1357.5 X185.331 Y98.426 E16.49442
G1 F1445.8 X186.066 Y98.76 E16.52089
G1 F1500 X186.58 Y99.148 E16.54124
G1 X186.966 Y99.69 E16.56226
G1 X187.162 Y100.158 E16.57829
G1 X187.26 Y100.742 E16.597
G1 X187.24 Y101.219 E16.61209
G1 X187.15 Y101.597 E16.62437
G1 X186.931 Y102.101 E16.64173
G1 X186.644 Y102.497 E16.65718
G1 X186.274 Y102.834 E16.673
G1 X185.667 Y103.168 E16.69489
G1 X185.182 Y103.286 E16.71066
G0 F3000 X185.255 Y103.58
G0 X200.505 Y103.628
G0 X200.574 Y103.33
G1 F1500 X199.975 Y103.197 E16.73005
G1 X199.535 Y102.981 E16.74554
G1 X199.137 Y102.679 E16.76132
G1 X198.814 Y102.308 E16.77686
G1 X198.573 Y101.873 E16.79258
G1 X198.416 Y101.376 E16.80905
G1 X198.369 Y100.89 E16.82447
G1 X198.417 Y100.411 E16.83968
G1 X198.57 Y99.922 E16.85587
G1 X198.866 Y99.414 E16.87445
G1 X199.2 Y99.054 E16.88997
G1 X199.593 Y98.77 E16.90529
G1 X199.93 Y98.61 E16.91708
G1 F1398.6 X200.542 Y98.426 E16.93873
G1 F1304.3 X201.254 Y98.452 E16.96462
G1 F1392.1 X202.055 Y98.785 E16.99416
G1 F1500 X202.526 Y99.142 E17.01283
G1 X202.77 Y99.418 E17.02447
G1 X202.977 Y99.739 E17.03654
G1 X203.159 Y100.175 E17.05147
G1 X203.265 Y100.758 E17.07019
G1 X203.211 Y101.445 E17.09196
G1 X202.942 Y102.129 E17.11519
G1 X202.524 Y102.65 E17.13629
G1 X202.14 Y102.953 E17.15175
G1 X201.708 Y103.173 E17.16707
G1 X201.211 Y103.308 E17.18334
G1 X200.574 Y103.33 E17.20348
G0 F3000 X200.505 Y103.628
G0 X198.077 Y126.824
G0 X198.223 Y127.777
G0 X198.565 Y128.449
G0 X198.934 Y128.866
G0 X200.425 Y129.621
G0 X200.486 Y129.358
G1 F1395.3 X199.868 Y129.171 E17.22541
G1 F1500 X199.533 Y129.008 E17.23718
G1 X199.143 Y128.725 E17.25241
G1 X198.768 Y128.321 E17.26982
G1 X198.443 Y127.687 E17.29234
G1 X198.345 Y127.258 E17.30624
G1 X198.321 Y126.765 E17.32184
G1 X198.392 Y126.298 E17.33676
G1 X198.493 Y125.986 E17.34712
G1 X198.72 Y125.549 E17.36268
G1 X198.958 Y125.244 E17.37491
G1 X199.31 Y124.922 E17.38998
G1 X199.604 Y124.735 E17.40099
G1 X200.04 Y124.551 E17.41594
G1 X200.588 Y124.451 E17.43354
G1 X201.087 Y124.467 E17.44932
G1 X201.665 Y124.615 E17.46817
G1 X202.102 Y124.839 E17.48369
G1 X202.498 Y125.166 E17.49992
G1 X202.898 Y125.668 E17.5202
G1 X203.165 Y126.351 E17.54337
G1 X203.214 Y127.034 E17.565
G1 X203.096 Y127.67 E17.58544
G1 X202.846 Y128.184 E17.6035
G1 X202.475 Y128.647 E17.62225
G1 X202.092 Y128.953 E17.63774
G1 X201.764 Y129.129 E17.6495
G1 F1385.7 X201.245 Y129.332 E17.66856
G1 F1295.9 X200.486 Y129.358 E17.69634
G0 F3000 X200.425 Y129.621
G0 X201.761 Y129.525
G0 X201.76 Y129.826
G1 F1500 X204.216 Y129.83 E17.77394
G1 X204.278 Y97.972 E18.78056
G1 F1492.5 X201.68 Y97.968 E18.86306
G1 F1385.7 X201.312 Y97.997 E18.87569
G1 F1392.1 X199.991 Y97.963 E18.92068
G1 F1500 X185.721 Y97.936 E19.37157
G1 F1395.3 X185.284 Y97.965 E19.38645
G1 F1318.7 X184.563 Y97.958 E19.41236
G1 F1415.1 X184.008 Y97.933 E19.43097
G1 F1500 X55.246 Y97.689 E23.49949
G1 X54.305 Y97.734 E23.52925
G1 X53.419 Y97.907 E23.55778
G1 X52.725 Y98.121 E23.58073
G1 X52.086 Y98.387 E23.6026
G1 X51.43 Y98.739 E23.62612
G1 X50.85 Y99.127 E23.64817
G1 X50.147 Y99.704 E23.6769
G1 X49.422 Y100.503 E23.71099
G1 X48.924 Y101.245 E23.73923
G1 X48.588 Y101.881 E23.76196
G1 X48.302 Y102.567 E23.78544
G1 X48.099 Y103.242 E23.80771
G1 X47.926 Y104.114 E23.8358
G1 X47.88 Y105.024 E23.86459
G1 X47.848 Y122.464 E24.41565
G1 X47.923 Y123.262 E24.44097
G1 X48.067 Y124.002 E24.46479
G1 X48.282 Y124.7 E24.48787
G1 X48.547 Y125.338 E24.5097
G1 X48.899 Y125.998 E24.53334
G1 X49.286 Y126.573 E24.55524
G1 X49.75 Y127.137 E24.57831
G1 X50.249 Y127.639 E24.60068
G1 X50.826 Y128.113 E24.62427
G1 X51.56 Y128.604 E24.65217
G1 X52.536 Y129.062 E24.68624
G1 X53.579 Y129.376 E24.72066
G1 X54.46 Y129.506 E24.74879
G1 X55.185 Y129.544 E24.77173
G1 X184.057 Y129.792 E28.84373
G1 F1418.4 X184.517 Y129.769 E28.85912
G1 F1327.4 X185.191 Y129.765 E28.88318
G1 F1398.6 X185.618 Y129.795 E28.89769
G1 F1500 X199.935 Y129.821 E29.35006
G1 F1385.7 X201.284 Y129.793 E29.39622
G1 X201.76 Y129.826 E29.41254
G0 F3000 X201.761 Y129.525
G0 X200.507 Y129.578
G0 X184.509 Y129.596
G0 X184.557 Y129.325
G1 F1418.4 X183.986 Y129.181 E29.43221
G1 F1500 X183.528 Y128.971 E29.44813
G1 X183.056 Y128.613 E29.46685
G1 X182.729 Y128.218 E29.48305
G1 X182.438 Y127.647 E29.5033
G1 X182.334 Y127.11 E29.52059
G1 X182.332 Y126.547 E29.53838
G1 X182.493 Y125.955 E29.55776
